frontend/src/assets/icons/link.svg

<svg xmlns="http://www.w3.org/2000/svg" fill="currentColor" viewBox="0 0 24 24"><g clip-path="url(#a)"><path fill="inherit" d="M17 7h-4v2h4c1.65 0 3 1.35 3 3s-1.35 3-3 3h-4v2h4c2.76 0 5-2.24 5-5s-2.24-5-5-5Zm-6 8H7c-1.65 0-3-1.35-3-3s1.35-3 3-3h4V7H7c-2.76 0-5 2.24-5 5s2.24 5 5 5h4v-2Zm-3-4h8v2H8v-2Zm9-4h-4v2h4c1.65 0 3 1.35 3 3s-1.35 3-3 3h-4v2h4c2.76 0 5-2.24 5-5s-2.24-5-5-5Zm-6 8H7c-1.65 0-3-1.35-3-3s1.35-3 3-3h4V7H7c-2.76 0-5 2.24-5 5s2.24 5 5 5h4v-2Zm-3-4h8v2H8v-2Z"/></g><defs><clipPath id="a"><path fill="#fff" d="M0 0h24v24H0z"/></clipPath></defs></svg>

<svg viewBox="0 0 24 24" fill="currentColor" xmlns="http://www.w3.org/2000/svg">
<g clip-path="url(#clip0_6_2176)">
<path d="M17 7H13V9H17C18.65 9 20 10.35 20 12C20 13.65 18.65 15 17 15H13V17H17C19.76 17 22 14.76 22 12C22 9.24 19.76 7 17 7ZM11 15H7C5.35 15 4 13.65 4 12C4 10.35 5.35 9 7 9H11V7H7C4.24 7 2 9.24 2 12C2 14.76 4.24 17 7 17H11V15ZM8 11H16V13H8V11ZM17 7H13V9H17C18.65 9 20 10.35 20 12C20 13.65 18.65 15 17 15H13V17H17C19.76 17 22 14.76 22 12C22 9.24 19.76 7 17 7ZM11 15H7C5.35 15 4 13.65 4 12C4 10.35 5.35 9 7 9H11V7H7C4.24 7 2 9.24 2 12C2 14.76 4.24 17 7 17H11V15ZM8 11H16V13H8V11Z" fill="inherit"/>
</g>
<defs>
<clipPath id="clip0_6_2176">
<rect width="24" height="24" fill="white"/>
</clipPath>
</defs>
</svg>
